static/assets/images/tokens/usdd.svg

<svg width="256" height="256" viewBox="0 0 256 256" fill="none" xmlns="http://www.w3.org/2000/svg">
<path d="M128 256C198.692 256 256 198.692 256 128C256 57.3075 198.692 0 128 0C57.3075 0 0 57.3075 0 128C0 198.692 57.3075 256 128 256Z" fill="#376B59"/>
<path d="M238.575 117.761C238.961 122.051 232.581 122.707 232.147 118.26C226.248 57.8289 171.325 14.9931 111.113 24.6715C64.4341 32.1736 28.5702 70.6943 24.0194 117.742C23.9411 118.55 23.8048 119.14 23.6104 119.51C21.9578 122.686 17.4238 121.33 17.7572 117.768C19.709 96.9165 26.8471 78.1824 39.1715 61.5653C70.3838 19.4822 126.789 5.31679 174.316 26.8878C210.437 43.2819 235.016 78.3683 238.575 117.761Z" fill="white"/>
<path d="M172.818 48.7816H91.8798C89.4742 48.7816 87.524 50.7313 87.524 53.1365V55.1703C87.524 57.5754 89.4742 59.5251 91.8798 59.5251H172.818C175.224 59.5251 177.174 57.5754 177.174 55.1703V53.1365C177.174 50.7313 175.224 48.7816 172.818 48.7816Z" fill="white"/>
<path d="M117.405 71.0969C117.392 71.099 117.378 71.0983 117.366 71.0948C117.353 71.0912 117.341 71.0849 117.331 71.0763C117.321 71.0677 117.313 71.057 117.308 71.045C117.302 71.033 117.299 71.0199 117.3 71.0067V63.8255C117.3 63.7556 117.335 63.7207 117.405 63.7207H127.943C128.013 63.7207 128.048 63.7556 128.048 63.8255V70.0695C128.048 70.152 128.006 70.1939 127.924 70.1953C124.401 70.2932 120.894 70.5937 117.405 71.0969Z" fill="white"/>
<path d="M134.478 70.254C134.455 70.2535 134.433 70.2439 134.417 70.2275C134.401 70.211 134.392 70.1889 134.392 70.166V63.8255C134.392 63.7556 134.427 63.7207 134.497 63.7207H145.035C145.063 63.7207 145.089 63.7317 145.109 63.7514C145.129 63.771 145.14 63.7977 145.14 63.8255V71.2164C145.14 71.2835 145.106 71.3122 145.039 71.3024C141.54 70.7293 138.019 70.3798 134.478 70.254Z" fill="white"/>
<path d="M117.212 145.13C106.474 142.729 96.1203 139.452 87.5345 132.375C79.4205 125.689 76.9081 114.826 78.9717 104.814C80.4628 97.5909 84.3971 91.7642 89.9965 87.0571C103.574 75.6384 122.975 73.3383 139.941 74.9507C150.645 75.9697 161.81 79.7374 170.039 86.839C176.12 92.0864 179.817 98.6896 181.131 106.649C181.376 108.128 180.97 109.337 179.913 110.278C179.003 111.087 178.059 111.264 176.753 111.264C170.437 111.265 164.121 111.264 157.805 111.261C157.071 111.261 156.477 111.174 156.024 110.999C153.346 109.964 153.184 107.649 151.886 105.426C150.294 102.706 148.069 100.623 145.211 99.176C145.204 99.172 145.195 99.1699 145.187 99.1702C145.178 99.1704 145.17 99.1729 145.163 99.1774C145.155 99.1818 145.149 99.1881 145.145 99.1956C145.141 99.2031 145.139 99.2116 145.14 99.2201V123.831C145.14 123.904 145.104 123.933 145.033 123.917L134.501 121.667C134.428 121.652 134.392 121.608 134.392 121.535V96.3706C134.392 96.2854 134.349 96.2393 134.264 96.2323C132.232 96.0631 130.198 96.0191 128.161 96.1002C128.085 96.103 128.048 96.1421 128.048 96.2176V120.12C128.048 120.191 128.013 120.219 127.945 120.204C124.082 119.34 120.81 118.38 117.384 116.589C117.328 116.56 117.3 116.513 117.3 116.449V98.3185C117.3 98.2486 117.267 98.2269 117.201 98.2535C111.746 100.489 107.829 105.152 108.221 111.213C108.808 120.246 121.951 123.309 128.84 124.815C133.997 125.94 139.156 127.056 144.318 128.163C156.242 130.717 169.857 135.738 177.499 145.742C182.922 152.841 184.449 161.608 182.809 170.282C179.372 188.473 161.697 196.814 145.249 199.267C145.179 199.277 145.144 199.317 145.144 199.388C145.136 202.213 145.136 205.035 145.144 207.853C145.156 212.164 142.68 213.256 138.72 212.992C136.82 212.864 135.356 211.973 134.687 210.18C134.492 209.657 134.394 208.864 134.394 207.8C134.394 205.326 134.392 202.851 134.39 200.376C134.39 200.312 134.357 200.279 134.293 200.279L128.144 200.338C128.081 200.338 128.05 200.37 128.05 200.433C128.044 202.982 128.044 205.528 128.048 208.071C128.052 210.377 127.184 212.21 124.799 212.851C123.977 213.074 122.914 212.998 121.958 213.006C119.906 213.027 118.246 212 117.572 210.105C117.388 209.587 117.298 208.847 117.302 207.884C117.31 205.146 117.307 202.408 117.291 199.671C117.291 199.596 117.254 199.553 117.178 199.543C97.0577 197.067 77.338 186.995 75.115 164.346C74.9493 162.656 76.0566 161.004 77.6693 160.459C78.1237 160.305 78.8724 160.227 79.9154 160.226C86.3118 160.22 92.7089 160.22 99.1067 160.224C101.191 160.224 102.961 162.115 103.483 164.061C106.891 176.803 123.033 179.447 134.029 178.44C141.27 177.775 151.144 174.903 153.627 166.971C155.804 160.012 151.32 154.934 145.259 152.537C145.18 152.507 145.14 152.534 145.14 152.619V170.659C145.14 170.724 145.122 170.788 145.088 170.844C145.054 170.9 145.005 170.946 144.947 170.976C141.657 172.66 138.168 173.678 134.48 174.031C134.421 174.038 134.392 174.011 134.392 173.951L134.394 149.116C134.394 149.037 134.355 148.99 134.278 148.973L128.184 147.612C128.093 147.593 128.048 147.629 128.048 147.721V174.165C128.048 174.233 128.013 174.268 127.945 174.268C124.32 174.21 120.799 173.586 117.384 172.395C117.359 172.387 117.338 172.371 117.323 172.349C117.308 172.328 117.3 172.302 117.3 172.276V145.241C117.3 145.179 117.27 145.142 117.212 145.13Z" fill="white"/>
<path d="M84.9109 229.977C47.3798 214.321 20.5863 177.996 17.4175 137.368C17.17 134.185 21.8446 132.893 23.4238 135.661C23.6517 136.062 23.8173 136.768 23.9208 137.779C30.1159 198.575 86.3663 241.442 146.805 230.447C192.423 222.148 227.049 184.567 231.9 138.58C232.103 136.655 232.147 135.311 234.062 134.399C235.62 133.656 237.527 134.604 238.093 136.122C238.261 136.569 238.3 137.268 238.21 138.217C233.301 190.36 191.995 232.426 139.964 237.934C120.833 239.96 102.482 237.307 84.9109 229.977Z" fill="white"/>
</svg>

<svg xmlns="http://www.w3.org/2000/svg" fill="none" viewBox="0 0 256 256"><path fill="#376B59" d="M128 256c70.692 0 128-57.308 128-128S198.692 0 128 0 0 57.308 0 128s57.308 128 128 128"/><path fill="#fff" d="M238.575 117.761c.386 4.29-5.994 4.946-6.428.499-5.899-60.431-60.822-103.267-121.034-93.589-46.679 7.503-82.543 46.023-87.094 93.071q-.117 1.213-.409 1.768c-1.652 3.176-6.186 1.82-5.853-1.742q2.928-31.277 21.415-56.203c31.212-42.083 87.617-56.248 135.144-34.677 36.121 16.394 60.7 51.48 64.259 90.873"/><path fill="#fff" d="M172.818 48.782H91.88a4.355 4.355 0 0 0-4.356 4.355v2.033a4.355 4.355 0 0 0 4.356 4.355h80.938a4.355 4.355 0 0 0 4.356-4.355v-2.034a4.355 4.355 0 0 0-4.356-4.354m-55.413 22.315a.1.1 0 0 1-.074-.02.1.1 0 0 1-.023-.032.1.1 0 0 1-.008-.038v-7.182q0-.104.105-.104h10.538q.105 0 .105.105v6.244q0 .123-.124.125-5.285.147-10.519.902m17.073-.843a.09.09 0 0 1-.086-.088v-6.34q0-.105.105-.105h10.538a.105.105 0 0 1 .105.105v7.39q0 .101-.101.086a84 84 0 0 0-10.561-1.048m-17.266 74.876c-10.738-2.401-21.092-5.678-29.678-12.755-8.114-6.686-10.626-17.549-8.562-27.561 1.49-7.223 5.425-13.05 11.025-17.757 13.577-11.419 32.978-13.719 49.944-12.106 10.704 1.019 21.869 4.786 30.098 11.888q9.121 7.87 11.092 19.81.368 2.218-1.218 3.629c-.91.809-1.854.986-3.16.986q-9.474.002-18.948-.003-1.101 0-1.781-.262c-2.678-1.035-2.84-3.35-4.138-5.573q-2.388-4.08-6.675-6.25a.05.05 0 0 0-.048.001.04.04 0 0 0-.023.043v24.611q0 .11-.107.086l-10.532-2.25q-.11-.022-.109-.132V96.371q0-.129-.128-.139a50 50 0 0 0-6.103-.132q-.113.004-.113.118v23.902q0 .106-.103.084c-3.863-.864-7.135-1.824-10.561-3.615a.15.15 0 0 1-.084-.14v-18.13q0-.105-.099-.066c-5.455 2.236-9.372 6.899-8.98 12.96.587 9.033 13.73 12.096 20.619 13.602a4482 4482 0 0 0 15.478 3.348c11.924 2.554 25.539 7.575 33.181 17.579 5.423 7.099 6.95 15.866 5.31 24.54-3.437 18.191-21.112 26.532-37.56 28.985q-.105.015-.105.121a1493 1493 0 0 0 0 8.465c.012 4.311-2.464 5.403-6.424 5.139-1.9-.128-3.364-1.019-4.033-2.812q-.293-.784-.293-2.38 0-3.711-.004-7.424 0-.096-.097-.097l-6.149.059q-.094 0-.094.095-.008 3.823-.002 7.638c.004 2.306-.864 4.139-3.249 4.78-.822.223-1.885.147-2.841.155-2.052.021-3.712-1.006-4.386-2.901q-.276-.777-.27-2.221.012-4.107-.011-8.213 0-.113-.113-.128c-20.12-2.476-39.84-12.548-42.063-35.197-.166-1.69.942-3.342 2.554-3.887q.682-.231 2.246-.233 9.595-.009 19.192-.002c2.084 0 3.854 1.891 4.376 3.837 3.408 12.742 19.55 15.386 30.546 14.379 7.241-.665 17.115-3.537 19.598-11.469 2.177-6.959-2.307-12.037-8.368-14.434q-.119-.045-.119.082v18.04a.36.36 0 0 1-.193.317 28.8 28.8 0 0 1-10.467 3.055q-.088.01-.088-.08l.002-24.835q0-.118-.116-.143l-6.094-1.361q-.136-.029-.136.109v26.444q0 .103-.103.103a33.5 33.5 0 0 1-10.561-1.873.13.13 0 0 1-.084-.119v-27.035q0-.093-.088-.111"/><path fill="#fff" d="M84.91 229.977c-37.53-15.656-64.324-51.981-67.492-92.609-.248-3.183 4.427-4.475 6.006-1.707q.341.601.497 2.118c6.195 60.796 62.445 103.663 122.884 92.668 45.618-8.299 80.244-45.88 85.095-91.867.203-1.925.247-3.269 2.162-4.181 1.558-.743 3.465.205 4.031 1.723q.252.671.117 2.095c-4.909 52.143-46.215 94.209-98.246 99.717q-28.696 3.038-55.053-7.957"/></svg>
